X:5
T:Traditional Set
C:Traditional
M:4/4
L:1/8
Q:1/4=56
K:D
T:Scotland the Brave
e4 |
{/g}A2{/GdGe}A3/2B/2 {/gcd}c1{/e}A1 {/gcd}c1e1|{/ag}a2{/g}a2 {/GdG}a1e1 {/gcd}c1{/e}A1|{/Gdc}d2{/g}f3/2d/2 {/gcd}c1e1 {/gcd}c1{/e}A1|{/gBd}B2{/g}e2{/A}e3/2f/2 {/g}e3/4d/4c3/4B/4|!
{/g}A2{/GdGe}A3/2B/2 {/gcd}c1{/e}A1 {/gcd}c1e1|{/ag}a2{/g}a2{/GdG}a1e1 {/gcd}c1{/e}A1|{/Gdc}d2{/g}f3/2d/2 {/gcd}c1e1 {/gcd}c1{/e}A1|{/gBd}B2{/g}A3/2B/2{/G}A2{/gcd}c1e1|!
{/ag}a2{/g}a2{/GdG}a1e1 {/gce}c1{/e}A1|{/ag}a2{/g}a2{/GdG}a1e1 {/gcd}c1e1| {/ag}a2 {/g}a3/2g/2 {/a}f2{/ag}a3/2g/2 | {/a}fa {/f}gf {/gef}ed {/gcd}cB|!
{/g}A2{/GdGe}A3/2B/2 {/gcd}c1{/e}A1 {/gcd}c1e1|{/ag}a2{/g}a2{/GdG}a1e1 {/gcd}c1{/e}A1|{/Gdc}d2{/g}f3/2d/2 {/gcd}c1e1 {/gcd}c1{/e}A1|{/gBd}B2{/g}A3/2B/2{/G}A2|]
T:Rowan Tree
{/g}A3/2B/2|{/GdG}c3{/d}c1{/gcd}c2B2|{/gcd}c1e3{/A}e2a2|{/fg}f3e1{/g}f2a2|{/fg}f2e2{/A}e2{/g}A3/2B/2|!
{/GdG}c3{/d}c1{/gcd}c2B2|{/gcd}c1e3{/g}f3e1|{/gef}e1c3{/gBd}B3{/G}A1|{/g}A4{/GAG}A3||!
e1 |{/A}e3a1{/g}a3g1|{/a}g2f2{/e}f2{/ag}a2|{/ef}e3f1 {/g}f1e1 {/g}d1c1|{/gcd}c4{/gBd}B2 A3/2B/2|!
{/GdG}c3{/d}c1{/gcd}c2B2|{/gcd}c1e3{/g}f3e1|{/gef}e1c3{/gBd}B3{/G}A1|{/g}A4{/GAG}A2|]!
T:The Battle of Waterloo
{/g}ed/4B3/4 | 
{/g}A2 {/GdGe}AB {/gAd}AG {/g}GA | {/GdG}c3/2d/2 {/g}ec {/Gdc}d2 {/g}ef/4g3/4 | {/ag}a3/2g/2 {/a}ed {/gef}e3/2d/2 {/gBd}BA | {/g}G3/2{/d}G/2 {/e}GA {/gGd}G2 {/g}ed/4B3/4 |!
{/g}A2 {/GdGe}AB {/gAd}AG {/g}GA | {/GdG}c3/2d/2 {/g}ec {/Gdc}d2 {/g}ef/4g3/4 | {/ag}a3/2g/2 {/a}ed {/gef}e3/2d/2 {/gBd}B{/e}G | {/g}A4 {/GAG}A2  ||!
{/gf}g2| {/ag}a3/2g/2 {/a}ed {/g}c2 {/GdG}e3/2f/2 | {/gf}g3/2a/2 {/f}ge {/gf}g2 {/a}ef/4g3/4 | {/ag}a3/2g/2 {/a}ed {/gef}e3/2d/2 {/gBd}BA | {/g}G3/2{/d}G/2 {/e}GA {/gGd}G2 {/g}ed/4B3/4|!
{/g}A2 {/GdGe}AB {/gAd}AG {/g}GA | {/GdG}c3/2d/2 {/g}ec {/Gdc}d2 {/g}ef/4g3/4 | {/ag}a3/2g/2 {/a}ed {/gef}e3/2d/2 {/gBd}B{/e}G | {/g}A4 {/GAG}A2  ]!

